svg_80x80/apache-airflow.svg

<svg viewBox="0 0 80 80" xmlns="http://www.w3.org/2000/svg">
<rect width="100%" height="100%" fill="white"/>
<path d="M10.959 69.449L39.4322 40.2619C39.6105 40.0791 39.6447 39.7964 39.496 39.5888C37.7639 37.171 34.5696 36.752 33.3855 35.1277C29.8779 30.3161 28.988 27.5928 27.4807 27.7617C27.3754 27.7735 27.2816 27.8302 27.2076 27.906L16.9216 38.4499C11.0043 44.5156 10.1557 57.8707 10.0001 69.0535C9.99303 69.5588 10.6061 69.8106 10.959 69.449Z" fill="#017CEE"/>
<path d="M69.2332 68.7275L40.0461 40.2542C39.8633 40.0759 39.5806 40.0417 39.3729 40.1904C36.9552 41.9225 36.5362 45.1167 34.9119 46.3009C30.1003 49.8083 27.377 50.6985 27.5459 52.2058C27.5577 52.311 27.6143 52.4049 27.6902 52.4787L38.2341 62.7648C44.2997 68.6821 57.6548 69.5307 68.8377 69.6862C69.343 69.6935 69.5948 69.0804 69.2332 68.7275Z" fill="#00AD46"/>
<path fill-rule="evenodd" clip-rule="evenodd" d="M38.234 62.7648C34.9206 59.5327 33.3833 53.1381 39.7354 39.9515C29.412 44.565 25.7943 50.6296 27.5739 52.3658L38.234 62.7648Z" fill="#04D659"/>
<path d="M68.5111 10.454L40.038 39.641C39.8597 39.8239 39.8255 40.1065 39.9742 40.3142C41.7063 42.7319 44.9007 43.1509 46.0845 44.7753C49.5923 49.5867 50.4824 52.31 51.9894 52.1414C52.0947 52.1296 52.1885 52.0728 52.2626 51.9969L62.5484 41.453C68.4661 35.3873 69.3146 22.0323 69.4702 10.8494C69.4771 10.344 68.864 10.0922 68.5111 10.454Z" fill="#00C7D4"/>
<path fill-rule="evenodd" clip-rule="evenodd" d="M62.5488 41.453C59.3163 44.7663 52.9217 46.3037 39.7351 39.9515C44.3486 50.2749 50.4131 53.8928 52.1494 52.113L62.5488 41.453Z" fill="#11E1EE"/>
<path d="M10.2377 11.1753L39.4247 39.6484C39.6076 39.8268 39.8902 39.861 40.0979 39.7123C42.5156 37.9802 42.9346 34.786 44.5588 33.6018C49.3706 30.0942 52.0939 29.2043 51.9249 27.697C51.9131 27.5918 51.8563 27.4979 51.7808 27.4239L41.2367 17.1379C35.171 11.2206 21.816 10.372 10.6331 10.2164C10.1277 10.2093 9.8759 10.8224 10.2377 11.1753Z" fill="#E43921"/>
<path fill-rule="evenodd" clip-rule="evenodd" d="M41.2366 17.1377C44.5498 20.37 46.0873 26.7645 39.7351 39.9511C50.0585 35.3377 53.6764 29.2731 51.8965 27.5369L41.2366 17.1377Z" fill="#FF7557"/>
<path fill-rule="evenodd" clip-rule="evenodd" d="M16.922 38.4499C20.1543 35.1365 26.5488 33.5993 39.7354 39.9514C35.122 29.6279 29.0574 26.0102 27.3212 27.7899L16.922 38.4499Z" fill="#0CB6FF"/>
<path d="M39.7554 41.2205C40.4585 41.2118 41.0215 40.6347 41.0128 39.9316C41.004 39.2285 40.427 38.6656 39.7239 38.6743C39.0208 38.683 38.4579 39.26 38.4666 39.9632C38.4753 40.6663 39.0523 41.2292 39.7554 41.2205Z" fill="#4A4848"/>
</svg>

<svg xmlns="http://www.w3.org/2000/svg" viewBox="0 0 80 80">
  <rect width="100%" height="100%" fill="#fff"/>
  <path fill="#017CEE" d="m10.96 69.45 28.47-29.19a.53.53 0 0 0 .07-.67c-1.74-2.42-4.93-2.84-6.11-4.46-3.51-4.81-4.4-7.54-5.9-7.37-.11.01-.2.07-.28.15L16.92 38.45C11 44.52 10.16 57.87 10 69.05c0 .5.6.76.96.4Z"/>
  <path fill="#00AD46" d="M69.23 68.73 40.05 40.25a.53.53 0 0 0-.68-.06c-2.41 1.73-2.83 4.93-4.46 6.11-4.81 3.5-7.53 4.4-7.36 5.9 0 .11.06.2.14.28l10.54 10.28c6.07 5.92 19.42 6.77 30.6 6.93.51 0 .76-.61.4-.96Z"/>
  <path fill="#04D659" fill-rule="evenodd" d="M38.23 62.76c-3.3-3.23-4.85-9.62 1.5-22.8-10.32 4.6-13.94 10.67-12.16 12.4l10.66 10.4Z" clip-rule="evenodd"/>
  <path fill="#00C7D4" d="m68.51 10.45-28.47 29.2a.53.53 0 0 0-.07.66c1.74 2.42 4.93 2.84 6.11 4.47 3.51 4.8 4.4 7.53 5.9 7.36.11-.01.2-.07.28-.14l10.29-10.55c5.92-6.06 6.76-19.42 6.92-30.6 0-.5-.6-.76-.96-.4Z"/>
  <path fill="#11E1EE" fill-rule="evenodd" d="M62.55 41.45c-3.23 3.32-9.63 4.85-22.81-1.5 4.6 10.32 10.67 13.94 12.4 12.16l10.4-10.66Z" clip-rule="evenodd"/>
  <path fill="#E43921" d="m10.24 11.18 29.18 28.47c.19.18.47.21.68.06 2.42-1.73 2.83-4.92 4.46-6.1 4.81-3.52 7.53-4.4 7.36-5.91a.46.46 0 0 0-.14-.28L41.24 17.14c-6.07-5.92-19.42-6.77-30.6-6.92-.51-.01-.76.6-.4.96Z"/>
  <path fill="#FF7557" fill-rule="evenodd" d="M41.24 17.14c3.31 3.23 4.85 9.62-1.5 22.81 10.32-4.61 13.94-10.68 12.16-12.41l-10.66-10.4Z" clip-rule="evenodd"/>
  <path fill="#0CB6FF" fill-rule="evenodd" d="M16.92 38.45c3.23-3.31 9.63-4.85 22.82 1.5-4.62-10.32-10.68-13.94-12.42-12.16l-10.4 10.66Z" clip-rule="evenodd"/>
  <path fill="#4A4848" d="M39.76 41.22a1.27 1.27 0 1 0-.04-2.55 1.27 1.27 0 0 0 .04 2.55Z"/>
</svg>
